X: 3
T: Rip The Calico
R: reel
M: 4/4
L: 1/8
K: Dmaj
d3c defd | ed (3Bcd egfe | d3c defd | edBd A3B :|dB~B2 gBfB | ed (3Bcd egfe | dB~B2 gBfB |1 edBd A3B :|2 edBd A3g ||faaf g2fg | ed (3Bcd egfe |faaf g2fg | edBd e3g|faaf g2fg | ed (3Bcd egfe|fa~a2 bfaf | defd egfe||


Tune 719	Setting 13792

